X: 1
T:AIR IX. Last time I came o'er the Muir.
B:Joseph Mitchell: "The Highland Fair" (1731)
Z:Jack Campin <http://www.purr.demon.co.uk/jack/jack.html>
N:first anacrusis is a crotchet in the original
M:C|
L:1/8
K:F
 c    | A2  GF  f3  g |(f/g/a) (gf) e3  c | d3   c  (AG)(Ac)|(d3e) f3
 c    | A2 (GF) f3  g |(f/g/a) (gf) e2(dc)|(de)(fg) (ag)(fe)|(d3e) f3
(e/f/)| g2  c2  c3  a |(ge)(de)     c3  d |(cA)(GA) (FG)(AB)| c4   f3
 c    |(dc)(df) d2(cA)|(GA)(cd)     f3  g |(ag)(fd) (fd)(cA)| G4   F3|]
